lib/assets/icons/svg/outlined-product-dailycare.svg

<svg xmlns="http://www.w3.org/2000/svg" viewBox="0 0 24 24"><path d="M9.412 21.275a1 1 0 0 1-.92-1.13v-8.75a9.815 9.815 0 0 1 .8-4.06 5.08 5.08 0 0 0 .12-1.72.513.513 0 0 1 .08-.39.534.534 0 0 1 .37-.16v-1.5h-1.37a.42.42 0 0 1 0-.84h6.19a.42.42 0 0 1 0 .84h-.199v1.5h.009c.14 0 .274.058.37.16a.522.522 0 0 1 .13.39 5.196 5.196 0 0 0 .13 1.8 9.504 9.504 0 0 1 .8 4v8.73a1 1 0 0 1-.9 1.1zm4.161-16.21v-1.5h-2.761v1.5zm-3.161 1a5.798 5.798 0 0 1-.2 1.6 8.913 8.913 0 0 0-.72 3.73v8.75a.411.411 0 0 0 0 .14h5.44v-8.89a8.697 8.697 0 0 0-.74-3.66 6.628 6.628 0 0 1-.22-1.67z"/></svg>

<svg viewBox="0 0 24 24" xmlns="http://www.w3.org/2000/svg">
  <path  d="M 9.412 21.275 C 8.837 21.234 8.416 20.716 8.492 20.145 L 8.492 11.395 C 8.467 10 8.74 8.616 9.292 7.335 C 9.43 6.773 9.47 6.191 9.412 5.615 C 9.385 5.48 9.414 5.339 9.492 5.225 C 9.59 5.125 9.723 5.068 9.862 5.065 L 9.862 3.565 L 8.492 3.565 C 8.169 3.565 7.967 3.215 8.128 2.935 C 8.203 2.805 8.342 2.725 8.492 2.725 L 14.682 2.725 C 15.005 2.725 15.207 3.075 15.046 3.355 C 14.971 3.485 14.832 3.565 14.682 3.565 L 14.483 3.565 L 14.483 5.065 L 14.492 5.065 C 14.632 5.065 14.766 5.123 14.862 5.225 C 14.957 5.332 15.004 5.473 14.992 5.615 C 14.93 6.218 14.974 6.827 15.122 7.415 C 15.675 8.675 15.948 10.039 15.922 11.415 L 15.922 20.145 C 15.98 20.698 15.576 21.192 15.022 21.245 Z M 13.573 5.065 L 13.573 3.565 L 10.812 3.565 L 10.812 5.065 Z M 10.412 6.065 C 10.42 6.605 10.353 7.144 10.212 7.665 C 9.707 8.842 9.461 10.114 9.492 11.395 L 9.492 20.145 C 9.484 20.191 9.484 20.239 9.492 20.285 L 14.932 20.285 L 14.932 11.395 C 14.953 10.136 14.701 8.887 14.192 7.735 C 14.048 7.19 13.974 6.629 13.972 6.065 Z"/>
</svg>
